src/assets/selectIcons/varie_5.svg

<svg xmlns="http://www.w3.org/2000/svg" viewBox="0 0 512 512"><path d="M0 0h512v512H0z"/><path fill="#fff" d="M102.594 25.97l90.062 345.78L481.844 395 391.75 49.22 102.594 25.97zm-18.906 1.593c-30.466 11.873-55.68 53.098-49.75 75.312l3.25 11.78c.667-1.76 1.36-3.522 2.093-5.28C49.19 85.668 65.84 62.61 89.657 50.47l-5.97-22.907zm44.937 18.906l247.813 21.593 80.937 305.156-249.344-20.064L128.626 46.47zM94.53 69.155c-16.66 10.01-29.916 28.068-38 47.406-5.245 12.552-8.037 25.64-8.75 36.532l64.814 235.28c.293-.55.572-1.105.875-1.655 10.6-19.254 27.822-37.696 51.124-48.47L94.53 69.156zm74.876 287.563c-17.673 9.067-31.144 23.712-39.562 39-4.464 8.105-7.262 16.36-8.688 23.75l11.688 42.405 1.625.125c-3.825-27.528 11.382-60.446 41.25-81.03l-6.314-24.25zm26.344 34.03c-32.552 17.26-46.49 52.402-41.844 72.906l289.844 24.53c-5.315-7.75-8.637-17.84-8.594-28.342l-22.562-9.063 46.625-7.31-13.595-12.97c5.605-6.907 13.688-13.025 24.78-17.656L195.75 390.75z"/></svg>

<?xml version="1.0" encoding="UTF-8" standalone="no"?>
<!DOCTYPE svg PUBLIC "-//W3C//DTD SVG 1.1//EN" "http://www.w3.org/Graphics/SVG/1.1/DTD/svg11.dtd">
<svg width="100%" height="100%" viewBox="0 0 512 512" version="1.1" xmlns="http://www.w3.org/2000/svg" xmlns:xlink="http://www.w3.org/1999/xlink" xml:space="preserve" xmlns:serif="http://www.serif.com/" style="fill-rule:evenodd;clip-rule:evenodd;stroke-linejoin:round;stroke-miterlimit:2;">
    <rect x="0" y="0" width="512" height="512" style="fill-rule:nonzero;"/>
    <path d="M102.594,25.97L192.656,371.75L481.844,395L391.75,49.22L102.594,25.97ZM83.688,27.563C53.222,39.436 28.008,80.661 33.938,102.875L37.188,114.655C37.855,112.895 38.548,111.133 39.281,109.375C49.19,85.668 65.84,62.61 89.657,50.47L83.687,27.563L83.688,27.563ZM128.625,46.469L376.438,68.062L457.375,373.218L208.031,353.154L128.626,46.47L128.625,46.469ZM94.53,69.155C77.87,79.165 64.614,97.223 56.53,116.561C51.285,129.113 48.493,142.201 47.78,153.093L112.594,388.373C112.887,387.823 113.166,387.268 113.469,386.718C124.069,367.464 141.291,349.022 164.593,338.248L94.53,69.156L94.53,69.155ZM169.406,356.718C151.733,365.785 138.262,380.43 129.844,395.718C125.38,403.823 122.582,412.078 121.156,419.468L132.844,461.873L134.469,461.998C130.644,434.47 145.851,401.552 175.719,380.968L169.405,356.718L169.406,356.718Z" style="fill:rgb(62,168,134);fill-rule:nonzero;"/>
    <path d="M195.75,390.748L195.75,390.75L470.404,412.843C459.312,417.474 451.229,423.592 445.624,430.499L459.219,443.469L412.594,450.779L435.156,459.842C435.113,470.344 438.435,480.434 443.75,488.184L153.906,463.654C149.26,443.15 163.198,408.008 195.75,390.748Z" style="fill:rgb(216,209,140);"/>
</svg>
